!!!COM: Bach, Johann Sebastian
!!!CDT: 1685/3//-1750/7/28/
!!!OTL@@DE: Nun lob', mein' Seel', den Herren
!!!AGN: 4-Part Chorale
!!!SCT: BH 268
!!!SCT: BWV 389
**harm	**root	**kern	**kern	**kern	**kern
!	!	!bass	!tenor	!alto	!soprno
*	*Iorgan	*Iorgan	*Iorgan	*Iorgan	*Iorgan
*M4/4	*M4/4	*M4/4	*M4/4	*M4/4	*M4/4
*met(c)	*met(c)	*met(c)	*met(c)	*met(c)	*met(c)
*MM60	*MM60	*MM60	*MM60	*MM60	*MM60
*k[f#c#g#d#a#e#]	*k[f#c#g#d#a#e#]	*k[f#c#g#d#a#e#]	*k[f#c#g#d#a#e#]	*k[f#c#g#d#a#e#]	*k[f#c#g#d#a#e#]
*F#:	*F#:	*F#:	*F#:	*F#:	*F#:
*>[A,A,B]	*>[A,A,B]	*>[A,A,B]	*>[A,A,B]	*>[A,A,B]	*>[A,A,B]
*>A	*>A	*>A	*>A	*>A	*>A
I	4CC	8f#	4a#	4cc#	4ff#
.	.	8e#	.	.	.
=1	=1	=1	=1	=1	=1
vi	4AA	4d#	4a#	4dd#	4ff#
iii	4EE	4A#	8a#	4cc#	4ee#
.	.	.	8g#	.	.
IV	4FF	4B	4f#	8cc#	4dd#
.	.	.	.	8b	.
I	4CC	8F#	4f#	8a#	4cc#
.	.	8G#	.	8b	.
=2	=2	=2	=2	=2	=2
Ib	4CC	4A#	4.f#	4cc#	4ff#
ii7b	8DD	8B	.	8dd#	4gg#
V	8GG	8c#	8e#	8cc#	.
I;	4CC;	4F#;	4f#;	4cc#;	4aa#;
I	4CC	4F#	8f#	4cc#	4aa#
.	.	.	8g#	.	.
=3	=3	=3	=3	=3	=3
I	8CC	4f#	8a#	8cc#	8aa#
ii7d	8DD	.	8b	8dd#	8gg#
Vb/vi	4EE	4c##	8a#	4ee#	4aa#
.	.	.	8g#	.	.
vi	4AA	8d#	4.f#	4.dd#	4aa#
.	.	8c#	.	.	.
ii7b	8DD	8B	.	.	4gg#
V	8GG	8c#	8e#	8cc#	.
=4	=4	=4	=4	=4	=4
Ib	8CC	8A#	4f#	8cc#	8ff#
ii7b	8DD	8B	.	8dd#	8gg#
V	4GG	4c#	4e#	8cc#	4gg#T
.	.	.	.	8b	.
I;	4CC;	4F#;	4c#;	4a#;	4ff#;
=:|!	=:|!	=:|!	=:|!	=:|!	=:|!
*>B	*>B	*>B	*>B	*>B	*>B
I	4CC	4F#	4c#	4a#	4ff#
=5	=5	=5	=5	=5	=5
IV	4FF	4B	4d#	4b	8ff#
.	.	.	.	.	8gg#
Ib	4CC	8A#	8c#	4ff#	4aa#
.	.	8B	8d#	.	.
V	4GG	4c#	4e#	8cc#	4gg#
.	.	.	.	8b	.
Vb/vi	4EE	4c##	4e#	4a#	4aa#
=6	=6	=6	=6	=6	=6
vi	4AA	4d#	8e#	2a#	4ff#
.	.	.	4d#	.	.
V/vi	4EE	4A#	.	.	4ee#
.	.	.	8c##	.	.
vi;	4AA;	4D#;	4f#;	4a#;	4dd#;
vi	4AA	8d#	8f#	4a#	4dd#
.	.	8c#	8e#	.	.
!!linebreak: 3
=7	=7	=7	=7	=7	=7
Vb/V	4DD	4B#	4d#	4g#	8gg#
.	.	.	.	.	8ff#
V	4GG	8c#	4c#	4g#	4ee#
.	.	8B#	.	.	.
Ib	8CC	8A#	4c#	8cc#	8ff#
I7	8CC	8F#	.	8a#	8ee#
V/V	4DD	4G#	8g#	4b#	4dd#
.	.	.	8f#	.	.
=8	=8	=8	=8	=8	=8
V;	4GG;	4C#;	4e#;	4g#;	4cc#;
V	4GG	8c#	8e#	4g#	4cc#
.	.	8B	8d#	.	.
Ib	4CC	4A#	4c#	8cc#	4ff#
.	.	.	.	8b	.
vi	4AA	8d#	4f#	4a#	4ff#
.	.	8c#	.	.	.
=9	=9	=9	=9	=9	=9
ii7b	4DD	8B	4f#	8dd#	4gg#
.	.	8G#	.	8b	.
V	4GG	4c#	4e#	4cc#	4gg#
I	4CC	4.F#	4f#	8cc#	8aa#
.	.	.	.	8b	8gg#
V7/IV	4CC	.	4e	4cc#	4aa#
.	.	16G#	.	.	.
.	.	16A#	.	.	.
=10	=10	=10	=10	=10	=10
IV;	4FF;	4B;	4d#;	4b;	4ff#;
I	4CC	4A#	4f#	4cc#	4ff#
ii	4DD	4G#	8g#	8b	4bb
.	.	.	8a#	8cc#	.
ii	4DD	4g#	4b	4dd#	4bb
=11	=11	=11	=11	=11	=11
iv/ii	4GG	8c#	4cc#	4ee	8aa#
.	.	8e	.	.	8gg#
V/ii	4AA	4d#	4f##	4a#	4aa#
ii;	4DD;	4G#;	4d#;	4b;	4gg#;
V	4GG	4c#	4e#	4cc#	4gg#
=12	=12	=12	=12	=12	=12
I	4CC	8f#	4f#	4cc#	4aa#
.	.	8e#	.	.	.
vi	4AA	8d#	4f#	4dd#	4aa#
.	.	8c#	.	.	.
iib	4DD	8B	4g#	4dd#	4bb
.	.	8A#	.	.	.
IVb/IV	4BB-	4G#	4g#	4ee	4bb
!!linebreak: 3
=13	=13	=13	=13	=13	=13
V7/IV	4CC	4F#	8a#	4ee	8ccc#
.	.	.	8g#	.	16bb
.	.	.	.	.	16aa#
vi7/IV	8DD	8G#	8f#	8dd#	8bb
viio/IV	8EE	8A#	8e	8cc#	8ccc#
IV;	4FF;	4B;	4d#;	4b;	4ff#;
I	4CC	4f#	8f#	4cc#	4aa#
.	.	.	8e#	.	.
=14	=14	=14	=14	=14	=14
Vb/V	4DD	4B#	4d#	4dd#	8gg#
.	.	.	.	.	8ff#
V	4GG	4c#	4g#	4cc#	4ee#
Ib	8CC	8A#	4c#	8cc#	8ff#
I7	8CC	8F#	.	8a#	8ee#
V/V	4DD	4G#	8g#	4b#	4dd#
.	.	.	8f#	.	.
=15	=15	=15	=15	=15	=15
V;	4GG;	4C#;	4e#;	4g#;	4cc#;
V	4GG	4C#	4e#	4g#	4cc#
vi	4AA	4D#	8A#	4dd#	4ff#
.	.	.	8B#	.	.
Vb	4GG	8E#	4c#	8g#	4ee#
.	.	8F#	.	8a#	.
=16	=16	=16	=16	=16	=16
ii	4DD	4G#	4g#	4b	4dd#
Ib	4CC	4A#	8g#	4cc#	4cc#
.	.	.	8f#	.	.
viio7c	4BB	4B	8f#	4.dd#	4gg#
.	.	.	8e#	.	.
viio7/V	4FF#	4B#	4f#	.	4aa#
.	.	.	.	16ee#	.
.	.	.	.	16ff#	.
=17	=17	=17	=17	=17	=17
V;	4GG;	4c#;	4e#;	4cc#;	4gg#;
Vb/vi	4EE	4c##	8a#	4ee#	4aa#
.	.	.	8g#	.	.
vi	4AA	8d#	8f#	4dd#	4bb
.	.	8e#	8g#	.	.
I	8CC	4f#	8a#	8cc#	4aa#
IV7c	8FF	.	8b	8dd#	.
=18	=18	=18	=18	=18	=18
V7d	8GG	8B	8cc#	4ee#	4gg#
V7	8GG	8c#	8b	.	.
vi	4AA	4d#	8a#	2ff#	8ff#
.	.	.	8b	.	8gg#
Ic	4CC	8c#	4.cc#	.	4aa#
.	.	8B	.	.	.
V	4GG	4c#	.	4ee#	4gg#
.	.	.	8b	.	.
=19	=19	=19	=19	=19	=19
I;	2.CC;	2.F#;	2.a#;	2.cc#;	2.ff#;
==	==	==	==	==	==
*-	*-	*-	*-	*-	*-
!!chor2scor: -l 3 -s 0.6 -o %b.pmx
!!!YEC: Copyright 1994, David Huron
!!!YEC: Changes/Additions 2001 by Craig Stuart Sapp
!!!YEN: United States of America
!!!SMA: 371 Bach Chorales, edited by Ludwig Erk, C.F. Peters
!!!PDT: 1850, 1865
!!!ONB: Harmony and Root analysis done manually
